assets/build/img/shopping-bag.svg

<svg width="23" height="23" viewBox="0 0 23 23" fill="none" xmlns="http://www.w3.org/2000/svg">
<g clip-path="url(#clip0)">
<path d="M20.6071 18.9663L19.5801 6.02393C19.5164 5.19005 18.8109 4.53711 17.9747 4.53711H15.9459V7.54315C15.9459 7.91541 15.6445 8.21675 15.2723 8.21675C14.9005 8.21675 14.5987 7.91541 14.5987 7.54315V4.53711H8.40165V7.54315C8.40165 7.91541 8.09987 8.21675 7.72805 8.21675C7.35578 8.21675 7.05444 7.91541 7.05444 7.54315V4.53711H5.02559C4.18946 4.53711 3.48396 5.19005 3.42022 6.02214L2.39277 18.9681C2.3133 20.005 2.67299 21.037 3.37934 21.7995C4.08574 22.5619 5.08714 22.9998 6.12672 22.9998H16.8736C17.9132 22.9998 18.9146 22.5619 19.621 21.7994C20.3274 21.0369 20.6871 20.005 20.6071 18.9663Z" fill="#00642F"/>
<path d="M11.5002 0C9.04875 0 7.05449 1.99471 7.05449 4.44614V4.53729H8.4017V4.44614C8.4017 2.73745 9.79153 1.34716 11.5002 1.34716C13.2089 1.34716 14.5988 2.73745 14.5988 4.44614V4.53729H15.9459V4.44614C15.9459 1.99471 13.9516 0 11.5002 0Z" fill="#00642F"/>
</g>
<defs>
<clipPath id="clip0">
<rect width="23" height="23" fill="white"/>
</clipPath>
</defs>
</svg>

<svg width="23" height="23" viewBox="0 0 23 23" fill="none" xmlns="http://www.w3.org/2000/svg"><g clip-path="url(#clip0)" fill="#00642F"><path d="M20.607 18.966L19.58 6.024a1.617 1.617 0 00-1.605-1.487h-2.03v3.006a.673.673 0 11-1.346 0V4.537H8.402v3.006a.674.674 0 11-1.348 0V4.537H5.026c-.837 0-1.542.653-1.606 1.485L2.393 18.968a3.756 3.756 0 00.986 2.831A3.757 3.757 0 006.127 23h10.747c1.04 0 2.04-.437 2.747-1.2a3.755 3.755 0 00.986-2.833zM11.5 0a4.451 4.451 0 00-4.446 4.446v.091h1.348v-.09a3.102 3.102 0 013.098-3.1 3.102 3.102 0 013.099 3.1v.09h1.347v-.09A4.451 4.451 0 0011.5 0z"/></g><defs><clipPath id="clip0"><path fill="#fff" d="M0 0h23v23H0z"/></clipPath></defs></svg>
